symbols/web/public/materialsymbolsoutlined/public_gradN25_24px.svg

<svg xmlns="http://www.w3.org/2000/svg" height="24" width="24"><path d="M12 21.75q-2.025 0-3.8-.775t-3.087-2.088Q3.8 17.575 3.025 15.8 2.25 14.025 2.25 12t.775-3.8Q3.8 6.425 5.113 5.1 6.425 3.775 8.2 3.012 9.975 2.25 12 2.25t3.8.775q1.775.775 3.1 2.087 1.325 1.313 2.088 3.088.762 1.775.762 3.8t-.775 3.8q-.775 1.775-2.087 3.087-1.313 1.313-3.088 2.088-1.775.775-3.8.775Zm-.975-1.9V17.9q-.8 0-1.375-.575t-.575-1.375v-.975l-4.75-4.75q-.075.45-.137.887-.063.438-.063.888 0 2.975 1.963 5.225 1.962 2.25 4.937 2.625Zm6.775-2.525q1.025-1.1 1.55-2.475.525-1.375.525-2.85 0-2.425-1.337-4.413Q17.2 5.6 14.95 4.7v.4q0 .8-.575 1.387-.575.588-1.4.588h-1.95v1.95q0 .425-.287.712-.288.288-.713.288H8.05V12h5.9q.425 0 .713.287.287.288.287.713v2.95h1q.625 0 1.137.375.513.375.713 1Z"/></svg>

<svg xmlns="http://www.w3.org/2000/svg" height="24" width="24"><path d="M11.025 19.85V17.9Q10.225 17.9 9.65 17.325Q9.075 16.75 9.075 15.95V14.975L4.325 10.225Q4.25 10.675 4.188 11.112Q4.125 11.55 4.125 12Q4.125 14.975 6.088 17.225Q8.05 19.475 11.025 19.85ZM17.8 17.325Q18.825 16.225 19.35 14.85Q19.875 13.475 19.875 12Q19.875 9.575 18.538 7.587Q17.2 5.6 14.95 4.7V5.1Q14.95 5.9 14.375 6.487Q13.8 7.075 12.975 7.075H11.025V9.025Q11.025 9.45 10.738 9.737Q10.45 10.025 10.025 10.025H8.05V12H13.95Q14.375 12 14.663 12.287Q14.95 12.575 14.95 13V15.95H15.95Q16.575 15.95 17.087 16.325Q17.6 16.7 17.8 17.325ZM12 21.75Q9.975 21.75 8.2 20.975Q6.425 20.2 5.113 18.887Q3.8 17.575 3.025 15.8Q2.25 14.025 2.25 12Q2.25 9.975 3.025 8.2Q3.8 6.425 5.113 5.1Q6.425 3.775 8.2 3.012Q9.975 2.25 12 2.25Q14.025 2.25 15.8 3.025Q17.575 3.8 18.9 5.112Q20.225 6.425 20.988 8.2Q21.75 9.975 21.75 12Q21.75 14.025 20.975 15.8Q20.2 17.575 18.888 18.887Q17.575 20.2 15.8 20.975Q14.025 21.75 12 21.75Z"/></svg>
